modules/feathericon/icons/wordpress-alt.svg

<?xml version="1.0" encoding="UTF-8"?>
<svg width="24px" height="24px" viewBox="0 0 24 24" version="1.1" xmlns="http://www.w3.org/2000/svg" xmlns:xlink="http://www.w3.org/1999/xlink">
    <!-- Generator: sketchtool 52.2 (67145) - http://www.bohemiancoding.com/sketch -->
    <title>wordpress-alt</title>
    <desc>Created with sketchtool.</desc>
    <g id="brand" stroke="none" stroke-width="1" fill="none" fill-rule="evenodd">
        <g id="wordpress-alt" fill="#000000">
            <path d="M19.8892175,7.68642494 C20.5910127,8.96694726 20.9903757,10.4364633 20.9903757,11.9996296 C20.9903757,15.3165433 19.1928191,18.212401 16.5199232,19.7708054 L19.2659404,11.8311649 C19.7788477,10.5485262 19.9496405,9.52292316 19.9496405,8.61097031 C19.9496405,8.27996677 19.9278417,7.97277263 19.8892175,7.68642494 L19.8892175,7.68642494 Z M13.2388823,7.78430802 C13.7801493,7.75584256 14.2678716,7.69891165 14.2678716,7.69891165 C14.7523135,7.64155745 14.6951709,6.92960355 14.2105174,6.95796319 C14.2105174,6.95796319 12.7542288,7.07224829 11.814128,7.07224829 C10.9307464,7.07224829 9.44630981,6.95796319 9.44630981,6.95796319 C8.96144465,6.92960355 8.90461955,7.67023455 9.38927307,7.69891165 C9.38927307,7.69891165 9.84789498,7.75584256 10.3323369,7.78430802 L11.7329644,11.6222771 L9.7651441,17.5230925 L6.49129899,7.78430802 C7.03298924,7.75584256 7.52018243,7.69891165 7.52018243,7.69891165 C8.00430686,7.64155745 7.9471643,6.92960355 7.46272242,6.95796319 C7.46272242,6.95796319 6.00675129,7.07224829 5.06654462,7.07224829 C4.89786827,7.07224829 4.69903334,7.06812133 4.48792334,7.06134888 C6.09553389,4.62072687 8.85869387,3.00898937 11.9998413,3.00898937 C14.340358,3.00898937 16.4715636,3.90390527 18.0710261,5.36950598 C18.0322961,5.36717795 17.9945185,5.36231025 17.9546246,5.36231025 C17.0714546,5.36231025 16.4447913,6.13161835 16.4447913,6.95796319 C16.4447913,7.69891165 16.8723023,8.32578664 17.3279612,9.06662928 C17.6698642,9.66546209 18.0692271,10.4346644 18.0692271,11.5461929 C18.0692271,12.3156068 17.7732499,13.2086179 17.3851038,14.4526325 L16.4880715,17.448913 L13.2388823,7.78430802 Z M11.9998413,20.9910106 C11.1173063,20.9910106 10.2655647,20.8615933 9.45985471,20.6246634 L12.157724,12.7860805 L14.9210957,20.3573632 C14.9392966,20.4018074 14.9616245,20.4427596 14.9854339,20.4812779 C14.0509415,20.8102708 13.0468199,20.9910106 11.9998413,20.9910106 L11.9998413,20.9910106 Z M3.00920101,11.9996296 C3.00920101,10.6961445 3.28877625,9.45879651 3.78771541,8.34070719 L8.07647579,20.0911212 C5.07702076,18.6339861 3.00920101,15.558341 3.00920101,11.9996296 L3.00920101,11.9996296 Z M11.9998413,2 C6.48590219,2 2,6.48579637 2,11.9996296 C2,17.5136745 6.48590219,22 11.9998413,22 C17.5136745,22 21.9997884,17.5136745 21.9997884,11.9996296 C21.9997884,6.48579637 17.5136745,2 11.9998413,2 L11.9998413,2 Z" id="Shape"></path>
        </g>
    </g>
</svg>

<svg width="24" height="24" viewBox="0 0 24 24" xmlns="http://www.w3.org/2000/svg"><path d="M19.89 7.686A8.947 8.947 0 0 1 20.99 12a8.986 8.986 0 0 1-4.47 7.77l2.746-7.939c.513-1.282.684-2.308.684-3.22 0-.331-.022-.638-.06-.925zm-6.651.098c.541-.028 1.029-.085 1.029-.085.484-.057.427-.77-.057-.741 0 0-1.457.114-2.397.114-.883 0-2.368-.114-2.368-.114-.485-.028-.541.712-.057.74 0 0 .459.058.943.086l1.401 3.838-1.968 5.901-3.274-9.739c.542-.028 1.03-.085 1.03-.085.483-.057.426-.77-.058-.741 0 0-1.456.114-2.396.114-.17 0-.368-.004-.58-.01A8.98 8.98 0 0 1 12 3.008c2.34 0 4.472.895 6.071 2.36-.039-.002-.076-.007-.116-.007-.884 0-1.51.77-1.51 1.596 0 .74.427 1.368.883 2.109.342.598.741 1.368.741 2.48 0 .769-.296 1.662-.684 2.906l-.897 2.996-3.25-9.665zm-1.24 13.207c-.882 0-1.733-.13-2.54-.366l2.699-7.839 2.763 7.571c.018.045.04.086.064.124a8.972 8.972 0 0 1-2.985.51zM3.01 12c0-1.304.28-2.541.779-3.66l4.288 11.751A8.991 8.991 0 0 1 3.01 12zM12 2C6.487 2 2 6.486 2 12s4.486 10 10 10 10-4.486 10-10S17.514 2 12 2z" fill="#000" fill-rule="evenodd"/></svg>
